images/icons/file.svg

<svg width="18" height="24" viewBox="0 0 18 24" xmlns="http://www.w3.org/2000/svg"><title>file</title><desc>Created with Sketch.</desc><g fill="#642EE1"><path d="M17 24h-16c-.6 0-1-.4-1-1v-22c0-.6.4-1 1-1h16c.6 0 1 .4 1 1v22c0 .6-.4 1-1 1zm-15-2h14v-20h-14v20zM10 7h-5c-.6 0-1-.4-1-1s.4-1 1-1h5c.6 0 1 .4 1 1s-.4 1-1 1zM13 11h-8c-.6 0-1-.4-1-1s.4-1 1-1h8c.6 0 1 .4 1 1s-.4 1-1 1zM11 15h-6c-.6 0-1-.4-1-1s.4-1 1-1h6c.6 0 1 .4 1 1s-.4 1-1 1zM13 19h-8c-.6 0-1-.4-1-1s.4-1 1-1h8c.6 0 1 .4 1 1s-.4 1-1 1z"/></g></svg>

<?xml version="1.0" encoding="UTF-8" standalone="no"?>
<svg width="18px" height="24px" viewBox="0 0 18 24" version="1.1" xmlns="http://www.w3.org/2000/svg" xmlns:xlink="http://www.w3.org/1999/xlink">
    <!-- Generator: Sketch 3.6.1 (26313) - http://www.bohemiancoding.com/sketch -->
    <title>file</title>
    <desc>Created with Sketch.</desc>
    <defs></defs>
    <g id="Mobile-design" stroke="none" stroke-width="1" fill="none" fill-rule="evenodd">
        <g id="Mobile-Portrait" transform="translate(-42.000000, -2034.000000)" fill="#642EE1">
            <g id="Group-5" transform="translate(42.000000, 2034.000000)">
                <g id="file">
                    <g id="Layer_1">
                        <g id="Group">
                            <path d="M17,24 L1,24 C0.4,24 0,23.6 0,23 L0,1 C0,0.4 0.4,0 1,0 L17,0 C17.6,0 18,0.4 18,1 L18,23 C18,23.6 17.6,24 17,24 L17,24 Z M2,22 L16,22 L16,2 L2,2 L2,22 L2,22 Z" id="Shape"></path>
                            <path d="M10,7 L5,7 C4.4,7 4,6.6 4,6 C4,5.4 4.4,5 5,5 L10,5 C10.6,5 11,5.4 11,6 C11,6.6 10.6,7 10,7 L10,7 Z" id="Shape"></path>
                            <path d="M13,11 L5,11 C4.4,11 4,10.6 4,10 C4,9.4 4.4,9 5,9 L13,9 C13.6,9 14,9.4 14,10 C14,10.6 13.6,11 13,11 L13,11 Z" id="Shape"></path>
                            <path d="M11,15 L5,15 C4.4,15 4,14.6 4,14 C4,13.4 4.4,13 5,13 L11,13 C11.6,13 12,13.4 12,14 C12,14.6 11.6,15 11,15 L11,15 Z" id="Shape"></path>
                            <path d="M13,19 L5,19 C4.4,19 4,18.6 4,18 C4,17.4 4.4,17 5,17 L13,17 C13.6,17 14,17.4 14,18 C14,18.6 13.6,19 13,19 L13,19 Z" id="Shape"></path>
                        </g>
                    </g>
                </g>
            </g>
        </g>
    </g>
</svg>
